X: 20280
T: Joey Beaton's
R: reel
M: 4/4
K: Aminor
|:^G,|A,2 CD E/F/E DC|B,GDG B,A,A,^G,|A,2 CD E/F/E DC|B,GDB, A,3:|
G|A^GAB A2 =GF|EGDG B,A,A,G|A^GAB A2 =GF|EGDB, A,2 A,G|
A^GAB A2 =GF|EGDG B,A,A,^G,|A,/B,/A, CD E2 DC|B,GDB, A,3||
|:e|A2 B/c/d e2 dc|Bgdg BGG^G|A/B/A Bd e2 dc|BgdB A3:|
g|a^gab a2 =gf|egdg BGGg|a^gab a2 =gf|egdB A2 Ag|
a^gab a2 =gf|egdg BGG^G|A2 Bd e/f/e dc|BgdB A3||

